svgs/thin/house-flood-water-circle-arrow-right.svg

<svg xmlns="http://www.w3.org/2000/svg" viewBox="0 0 640 512"><!--! Font Awesome Pro 6.4.0 by @fontawesome - https://fontawesome.com License - https://fontawesome.com/license (Commercial License) Copyright 2023 Fonticons, Inc. --><path d="M305.2 73.2c-2.2-5-4.6-9.8-7.2-14.5L379.4 1.5c2.8-1.9 6.4-1.9 9.2 0l216 152c3.6 2.5 4.5 7.5 1.9 11.1s-7.5 4.5-11.1 1.9L560 141.6V276.6c-2.4-1.6-4.6-3.3-6.8-5.1c-2.9-2.5-6-4.6-9.2-6.5V130.4L384 17.8 305.2 73.2zm21.4 250.2c8 11.2 17.5 21.4 27.6 30.7C371.5 369.8 393.5 384 416 384s44.6-14.2 61.8-29.9c10.1-9.2 19.7-19.5 27.6-30.7c1.5-2.1 3.9-3.4 6.6-3.4s5.1 1.3 6.6 3.4c7.3 10.3 15.9 19.6 25 28.3c15.7 14.8 36.1 29.2 57.4 31.9c4.4 .6 7.5 4.6 6.9 8.9s-4.6 7.5-8.9 6.9c-26.5-3.3-50-20.7-66.4-36.1c-8.8-8.3-15.9-16.4-20.6-22.2c-5.2 6.4-13.3 15.6-23.4 24.8c-18 16.3-43.9 34.1-72.6 34.1s-54.6-17.8-72.6-34.1c-10.2-9.2-18.2-18.4-23.4-24.8l0 0 0 0c-5.2 6.4-13.3 15.6-23.4 24.8c-18 16.3-43.9 34.1-72.6 34.1s-54.6-17.8-72.6-34.1c-10.2-9.2-18.2-18.4-23.4-24.8c-4.7 5.8-11.8 13.9-20.6 22.2C91 378.7 67.5 396.1 41 399.4c-4.4 .6-8.4-2.6-8.9-6.9s2.6-8.4 6.9-8.9c21.3-2.7 41.7-17.1 57.4-31.9c9.1-8.6 17.7-18 25-28.3c1.5-2.1 3.9-3.4 6.6-3.4s5.1 1.3 6.6 3.4c7.9 11.2 17.5 21.5 27.6 30.7C179.4 369.8 201.5 384 224 384s44.6-14.2 61.8-29.9c10.1-9.2 19.6-19.5 27.6-30.7c3-4.3 10.2-4.3 13.2 0zm27.6 142.7C371.5 481.8 393.5 496 416 496s44.6-14.2 61.8-29.9c10.1-9.2 19.7-19.5 27.6-30.7c1.5-2.1 3.9-3.4 6.6-3.4s5.1 1.3 6.6 3.4c7.3 10.3 15.9 19.6 25 28.3c15.7 14.8 36.1 29.2 57.4 31.9c4.4 .6 7.5 4.6 6.9 8.9s-4.6 7.5-8.9 6.9c-26.5-3.3-50-20.7-66.4-36.1c-8.8-8.3-15.9-16.4-20.6-22.2c-5.2 6.4-13.3 15.6-23.4 24.8c-18 16.3-43.9 34.1-72.6 34.1s-54.6-17.8-72.6-34.1c-10.2-9.2-18.2-18.4-23.4-24.8l0 0 0 0c-5.2 6.4-13.3 15.6-23.4 24.8c-18 16.3-43.9 34.1-72.6 34.1s-54.6-17.8-72.6-34.1c-10.2-9.2-18.2-18.4-23.4-24.8c-4.7 5.8-11.8 13.9-20.6 22.2C91 490.7 67.5 508.1 41 511.4c-4.4 .6-8.4-2.6-8.9-6.9s2.6-8.4 6.9-8.9c21.3-2.7 41.7-17.1 57.4-31.9c9.1-8.6 17.7-18 25-28.3c1.5-2.1 3.9-3.4 6.6-3.4s5.1 1.3 6.6 3.4c7.9 11.2 17.5 21.5 27.6 30.7C179.4 481.8 201.5 496 224 496s44.6-14.2 61.8-29.9c10.1-9.2 19.6-19.5 27.6-30.7c3-4.3 10.2-4.3 13.2 0c8 11.2 17.5 21.4 27.6 30.7zM144 272a128 128 0 1 0 0-256 128 128 0 1 0 0 256zM144 0a144 144 0 1 1 0 288A144 144 0 1 1 144 0zm2.3 74.3c3.1-3.1 8.2-3.1 11.3 0l64 64c3.1 3.1 3.1 8.2 0 11.3l-64 64c-3.1 3.1-8.2 3.1-11.3 0s-3.1-8.2 0-11.3L196.7 152H72c-4.4 0-8-3.6-8-8s3.6-8 8-8H196.7L146.3 85.7c-3.1-3.1-3.1-8.2 0-11.3z"/></svg>

<svg xmlns="http://www.w3.org/2000/svg" viewBox="0 0 640 512"><!--! Font Awesome Pro 6.3.0 by @fontawesome - https://fontawesome.com License - https://fontawesome.com/license (Commercial License) Copyright 2023 Fonticons, Inc. --><path d="M305.2 73.24C303 68.28 300.6 63.44 298 58.74L379.4 1.458C382.2-.4858 385.8-.4858 388.6 1.458L604.6 153.5C608.2 156 609.1 160.1 606.5 164.6C604 168.2 599 169.1 595.4 166.5L560 141.6V276.6C557.6 274.1 555.4 273.3 553.2 271.5C550.3 269 547.2 266.9 544 265V130.4L384 17.78L305.2 73.24zM326.6 323.4C334.6 334.6 344.1 344.9 354.2 354.1C371.5 369.8 393.5 384 416 384C438.5 384 460.6 369.8 477.8 354.1C487.1 344.9 497.5 334.6 505.5 323.4C506.1 321.3 509.4 320 512 320C514.6 320 517.1 321.3 518.6 323.4C525.9 333.7 534.5 343 543.6 351.7C559.3 366.5 579.7 380.9 601 383.6C605.4 384.1 608.5 388.1 607.9 392.5C607.4 396.9 603.4 399.1 599 399.4C572.5 396.1 548.1 378.7 532.6 363.3C523.8 354.1 516.7 346.9 512 341.1C506.8 347.5 498.8 356.7 488.6 365.9C470.7 382.2 444.7 400 416 400C387.3 400 361.4 382.2 343.4 365.9C333.3 356.7 325.2 347.5 320 341.1L320 341.1L319.1 341.1C314.8 347.5 306.7 356.7 296.6 365.9C278.6 382.2 252.7 400 223.1 400C195.3 400 169.4 382.2 151.4 365.9C141.2 356.7 133.2 347.5 127.1 341.1C123.3 346.9 116.2 354.1 107.4 363.3C91.03 378.7 67.48 396.1 41 399.4C36.62 399.1 32.62 396.9 32.06 392.5C31.51 388.1 34.62 384.1 39 383.6C60.3 380.9 80.74 366.5 96.42 351.7C105.6 343 114.2 333.7 121.4 323.4C122.9 321.3 125.4 320 127.1 320C130.6 320 133 321.3 134.5 323.4C142.5 334.6 152 344.9 162.2 354.1C179.4 369.8 201.5 384 223.1 384C246.5 384 268.6 369.8 285.8 354.1C295.9 344.9 305.4 334.6 313.4 323.4C316.4 319.1 323.6 319.1 326.6 323.4H326.6zM416 496C438.5 496 460.6 481.8 477.8 466.1C487.1 456.9 497.5 446.6 505.5 435.4C506.1 433.3 509.4 432 512 432C514.6 432 517.1 433.3 518.6 435.4C525.9 445.7 534.5 455 543.6 463.7C559.3 478.5 579.7 492.9 601 495.6C605.4 496.1 608.5 500.1 607.9 504.5C607.4 508.9 603.4 511.1 599 511.4C572.5 508.1 548.1 490.7 532.6 475.3C523.8 466.1 516.7 458.9 512 453.1C506.8 459.5 498.8 468.7 488.6 477.9C470.7 494.2 444.7 512 416 512C387.3 512 361.4 494.2 343.4 477.9C333.3 468.7 325.2 459.5 320 453.1L320 453.1L319.1 453.1C314.8 459.5 306.7 468.7 296.6 477.9C278.6 494.2 252.7 512 223.1 512C195.3 512 169.4 494.2 151.4 477.9C141.2 468.7 133.2 459.5 127.1 453.1C123.3 458.9 116.2 466.1 107.4 475.3C91.03 490.7 67.48 508.1 41 511.4C36.62 511.1 32.62 508.9 32.06 504.5C31.51 500.1 34.62 496.1 39 495.6C60.3 492.9 80.74 478.5 96.42 463.7C105.6 455 114.2 445.7 121.4 435.4C122.9 433.3 125.4 432 127.1 432C130.6 432 133 433.3 134.5 435.4C142.5 446.6 152 456.9 162.2 466.1C179.4 481.8 201.5 496 223.1 496C246.5 496 268.6 481.8 285.8 466.1C295.9 456.9 305.4 446.6 313.4 435.4C316.4 431.1 323.6 431.1 326.6 435.4C334.6 446.6 344.1 456.9 354.2 466.1C371.5 481.8 393.5 496 416 496H416zM146.3 74.34C149.5 71.22 154.5 71.22 157.7 74.34L221.7 138.3C224.8 141.5 224.8 146.5 221.7 149.7L157.7 213.7C154.5 216.8 149.5 216.8 146.3 213.7C143.2 210.5 143.2 205.5 146.3 202.3L196.7 152H71.1C67.58 152 63.1 148.4 63.1 144C63.1 139.6 67.58 136 71.1 136H196.7L146.3 85.66C143.2 82.53 143.2 77.47 146.3 74.34V74.34zM0 144C0 64.47 64.47 .0002 144 .0002C223.5 .0002 288 64.47 288 144C288 223.5 223.5 288 144 288C64.47 288 0 223.5 0 144zM144 272C214.7 272 272 214.7 272 144C272 73.31 214.7 16 144 16C73.31 16 16 73.31 16 144C16 214.7 73.31 272 144 272z"/></svg>
